X:115
T:The Twisting of the Rope
N:"Moderate"
B:O'Neill's 115
Z:Transcribed by henrik.norbeck@mailbox.swipnet.se
M:3/4
L:1/8
K:G
D|GD Gz/A/ B/c/B/.A/|G2 B/A/.G AE|GD Gz/A/ B/c/B/.A/|B2 de Hed|
g/f/e/.d/ e/d/c/.B/ d/c/B/.A/|G2 B/A/.G AE|GD GA B/e/d/.c/|B2 A2 HG z/ d/|
g/f/g/.d/ e/d/e/.B/ d/c/B/.A/|G2 B/A/.G AE|GD GA B/e/d/.c/|B4 BAG|\
G4 z|]
